packages/design-system/site/assets/images/header-faq.svg

<?xml version="1.0" encoding="UTF-8" standalone="no"?>
<svg width="55px" height="92px" viewBox="0 0 55 92" version="1.1" xmlns="http://www.w3.org/2000/svg" xmlns:xlink="http://www.w3.org/1999/xlink" xmlns:sketch="http://www.bohemiancoding.com/sketch/ns">
    <!-- Generator: Sketch 3.3.3 (12072) - http://www.bohemiancoding.com/sketch -->
    <title>Untitled</title>
    <desc>Created with Sketch.</desc>
    <defs></defs>
    <g id="Page-1" stroke="none" stroke-width="1" fill="none" fill-rule="evenodd" sketch:type="MSPage">
        <path d="M24.8924118,90.1740666 C22.8854118,88.0195382 0.219176471,46.7846461 0.219176471,46.7846461 C0.219176471,46.7846461 0.244058824,45.2392141 0.219176471,44.7133789 L26.82,39 C26.82,39 35.5341464,54.173644 35.5363809,61.760466 C35.5392641,71.5496491 26.8353529,91.1280154 26.8353529,91.1280154 C26.2344706,91.1311177 25.5674118,90.8984473 24.8924118,90.1740666 Z" id="Fill-1" fill="#C97DD4" sketch:type="MSShapeGroup"></path>
        <path d="M28.98,89.8719509 C28.98,89.8719509 29.1885882,89.6506554 29.2701176,89.5281157 C29.3516471,89.4060929 53.4134118,46.7875873 53.4134118,46.7875873 C53.7236471,46.2896725 54.1380602,45.1425518 54.1396484,44.7568359 C54.1396484,44.7568359 45.5189916,42 41.367958,42 C36.5786387,42 27,45.4339623 27,45.4339623 L27.0508235,90.691985 C28.1604706,90.6826782 28.98,89.8719509 28.98,89.8719509 Z" id="Fill-2" fill="#974EA9" sketch:type="MSShapeGroup"></path>
        <path d="M24,45.2171761 L26.5888672,0.123535156 C28.3756319,0.142148793 29.862518,1.18506818 30.1187533,1.64472159 C30.3702239,2.09558523 54.0931651,44.2358239 54.0931651,44.2358239 C54.0931651,44.2358239 54.3075769,44.6287784 54.3044004,45.2171761 L42.1000868,45.2171761 L27.4833416,45.2171761" id="Fill-3" fill="#AC55BA" sketch:type="MSShapeGroup"></path>
        <path d="M0.119576262,44.409155 C0.191576262,44.2126777 0.373693909,43.8248936 0.50604685,43.5498254 C0.638399791,43.2752743 24.4354586,1.67069477 24.4354586,1.67069477 C24.4354586,1.67069477 25.2645174,-0.0164245503 26.9104586,0.00012090425 L26.8225763,45.217297 L0.00257626165,45.217297 C-0.00907079717,44.9685982 0.0168703793,44.6899107 0.119576262,44.409155 Z" id="Fill-4" fill="#E0ADE8" sketch:type="MSShapeGroup"></path>
    </g>
</svg>

<svg width="55" height="92" xmlns="http://www.w3.org/2000/svg"><g fill="none" fill-rule="evenodd"><path d="M24.892 90.174C22.885 88.02.22 46.784.22 46.784s.024-1.545 0-2.07L26.82 39s8.714 15.174 8.716 22.76c.003 9.79-8.7 29.368-8.7 29.368-.602.003-1.27-.23-1.944-.954z" fill="#C97DD4"/><path d="M28.98 89.872s.21-.22.29-.344c.082-.122 24.143-42.74 24.143-42.74.31-.498.725-1.645.727-2.03 0 0-8.62-2.758-12.772-2.758C36.578 42 27 45.434 27 45.434l.05 45.258c1.11-.01 1.93-.82 1.93-.82z" fill="#974EA9"/><path d="M24 45.217L26.59.124c1.786.018 3.273 1.06 3.53 1.52.25.452 23.973 42.592 23.973 42.592s.215.393.21.98h-26.82" fill="#AC55BA"/><path d="M.12 44.41c.072-.197.254-.585.386-.86s23.93-41.88 23.93-41.88.83-1.686 2.474-1.67l-.087 45.217H.003c-.012-.248.014-.527.117-.808z" fill="#E0ADE8"/></g></svg>
